X:8
T:Quarry Cross / Marie's Wedding
T: Quarry Cross
M: C|
L: 1/8
F: http://www.thursdaycontra.com/~spuds/tunes/reels/QuarryCross.abc
K: Em
Q: 1/2=110
|:"Em"G2E2    E2ED |  "(Bm)""Em" B,2E2 "(Am)""Em"  E3G  | "D"F2D2     D3E  |    F2G2    ABBA
| "Em"G2E2    E2ED |   B,2E2   E3F  | "C"G2B2  "D"A2F2 |"Em"E4      E2BA :|
|:"Em"B2e2    e3d  | "(D)""Em"  e2B2    B2A2 | "(C)""Em"B2e2     e2d2 |"(Bm)""C" e4   "(Bm)""D"f3f
| "Em"g2e2 "D"f2gf |"C "e2B2 "Bm"B3A |"Am"G2E2 "Bm"E2F2 | "(C6)""C"G2A2 "(A)""D"B2BA :|
T:
